white/yfi.svg

<?xml version="1.0" encoding="UTF-8"?>
<svg width="32px" height="32px" viewBox="0 0 32 32" version="1.1" xmlns="http://www.w3.org/2000/svg" xmlns:xlink="http://www.w3.org/1999/xlink">
    <title>svg/white/yfi</title>
    <g id="white/yfi" stroke="none" stroke-width="1" fill="none" fill-rule="evenodd">
        <path d="M16,-3.3553407e-15 C24.836556,-3.3553407e-15 32,7.163444 32,16 C32,24.836556 24.836556,32 16,32 C7.163444,32 0,24.836556 0,16 C0,7.163444 7.163444,-3.3553407e-15 16,-3.3553407e-15 Z M17.3424242,16.0754616 L17.1848485,17.7451586 C19.1424242,19.3027344 19.4060606,20.4603101 19.1060606,22.0027344 C18.4272727,24.3936434 16.3545455,24.6421283 15.4727273,24.4906131 C14.4636364,24.3057647 14.0393939,24.2542495 13.1666667,23.2300071 C11.7831956,21.3626058 12.7529538,19.6208883 12.8755818,19.4166302 L12.8878788,19.3966738 L13.330303,21.4966738 L14.6,21.2451586 L13.769697,16.8209162 L9.5,17.8330374 L9.84242424,19.2118253 L11.5909091,18.8724313 L11.5909091,18.8724313 L11.5741714,18.9129735 C11.4991004,19.0970052 11.1931818,19.8709162 11.1030303,20.4754616 C10.5151515,24.1633404 13.6363636,25.8330374 14.9333333,25.9209162 C17.5060606,26.108795 19,24.9966738 19.7757576,23.8178859 C21.2151515,21.4572798 20.4969697,19.7118253 20.0787879,18.8239465 C19.5333333,17.7057647 17.3424242,16.0754616 17.3424242,16.0754616 L17.3424242,16.0754616 Z M16.5818182,9.75424951 L15.2090909,9.75424951 L15.2090909,22.3603101 L16.5818182,22.3603101 L16.5818182,9.75424951 Z M16.5515152,6.00879496 C13.9727273,5.88758284 12.5090909,7.03909799 11.7666667,8.23909799 C10.3878788,10.639098 11.1515152,12.3633404 11.5969697,13.2360677 C12.1727273,14.339098 14.4060606,15.9118253 14.4060606,15.9118253 L14.4060606,15.9118253 L14.5181818,14.239098 C12.5181818,12.7360677 12.2242424,11.5875828 12.4848485,10.0360677 C13.1,7.62697678 15.1636364,7.32697678 16.0515152,7.45424951 C17.0606061,7.61182527 17.4878788,7.65424951 18.3878788,8.65424951 C19.8225895,10.4817977 18.8987228,12.2505152 18.7814691,12.4581924 L18.769697,12.4784919 L18.2727273,10.3936434 L17.0121212,10.6784919 L17.9575758,15.0784919 L22.1969697,13.9542495 L21.8181818,12.5815222 L20.0787879,12.969401 C20.0787879,12.969401 20.4393939,12.0451586 20.5242424,11.3512192 C21.0151515,7.6481889 17.8484848,6.06334042 16.5515152,6.00879496 Z" id="Combined-Shape" fill="#FFFFFF"></path>
    </g>
</svg>

<!-- Generated by IcoMoon.io -->
<svg version="1.1" xmlns="http://www.w3.org/2000/svg" width="32" height="32" viewBox="0 0 32 32">
<title>yfi</title>
<path fill="#fff" d="M16 0c8.837 0 16 7.163 16 16s-7.163 16-16 16-16-7.163-16-16 7.163-16 16-16zM17.342 16.075l-0.157 1.67c1.957 1.558 2.221 2.715 1.921 4.258-0.679 2.39-2.751 2.64-3.633 2.488-1.010-0.185-1.434-0.237-2.306-1.261-0.458-0.579-0.734-1.319-0.734-2.124 0-0.621 0.164-1.203 0.452-1.706l-0.009 0.017 0.012-0.020 0.442 2.1 1.27-0.252-0.83-4.424-4.27 1.012 0.342 1.379 1.749-0.34-0.017 0.041c-0.075 0.184-0.38 0.958-0.471 1.562-0.588 3.688 2.533 5.358 3.83 5.446 2.573 0.188 4.067-0.924 4.843-2.103 1.44-2.36 0.721-4.106 0.303-4.994-0.546-1.118-2.737-2.749-2.737-2.749zM16.582 9.755h-1.373v12.605h1.373v-12.606zM16.552 6.009c-2.58-0.121-4.043 1.030-4.785 2.23-1.38 2.4-0.615 4.124-0.17 4.997 0.576 1.103 2.81 2.676 2.81 2.676l0.111-1.673c-2-1.503-2.294-2.651-2.033-4.203 0.615-2.409 2.679-2.709 3.567-2.582 1.009 0.158 1.436 0.2 2.336 1.2 0.493 0.591 0.793 1.358 0.793 2.195 0 0.589-0.148 1.143-0.409 1.627l0.009-0.018-0.011 0.020-0.497-2.084-1.26 0.284 0.945 4.4 4.239-1.124-0.379-1.372-1.74 0.387s0.361-0.924 0.446-1.618c0.491-3.703-2.676-5.288-3.972-5.342z"></path>
</svg>
